X: 8526
T: Creg Willy Syl
R: jig
M: 6/8
K: Dmajor
A2A A2F|A2A A2F|B2B B2A|B2c dcB|
A2A A2F|A2B A2F|f2e dcB|1 A2B A2F:|2 A2c d3||
|:f2f f2d|f2g f2d|a2f e2d|B2c B2A|
f2f f2d|f2g f2d|a2f e2d|B2c d3:|

